!!!ONB: MCCC : IJB0068_04 : Extracted Monophonic Melody
!!!COM: Bach, Johann Sebastian
!!!OPR: Cello Suite No.6
!!!OMV: 4
!!!SCT: BWV 1012
!!!ODT: 1717///
**kern
*thru
*staff1
*IP1
*clefF4
*k[f#c#]
*D:
*M3/2
*>A
=1-
2f#
2.f#
4g
=2
4e
4c#
2.d
4b
=3
4a
4f#
2.g
4a
=4
4g
4f#
4g
4e
2f#
=5
2f#
2.g#
4a
=6
4b
4c#
2.d
4e
=7
4d
4c#
4c#
4B
4B
4d
=8
4d
4c#
1c#
=9
*>A
2f#
2.f#
4g
=2
4e
4c#
2.d
4b
=3
4a
4f#
2.g
4a
=4
4g
4f#
4g
4e
2f#
=5
2f#
2.g#
4a
=6
4b
4c#
2.d
4e
=7
4d
4c#
4c#
4B
4B
4d
=8
4d
4c#
1c#
=9
*>B
2e
2.e
4e
=10
4e
4c#
4d#
8A
8B
4c
4E
=11
4f#
4A
4B
8f#
8g
4a
4D#
=12
4a
4f#
2.g
4g
=13
4g
4f#
4cc
4d
4e
4G
=14
4F#
4e
4d
4cc
2b
=15
4d
4e
4e
4f#
4f#
4g
=16
4g
4A
2.g
4b
=17
4b
4g
4g
4e
4e
4c#
=18
4c#
4A
4A
4G
4G
4a
=19
4a
4f#
4f#
4d
4d
4B
=20
4B
4G
4G
4F#
4F#
4g
=21
4g
4d
4d
4c#
4c#
4B
=22
4g
4c#
4c#
4B
4B
4A
=23
4A
4g
4g
4f#
4f#
4g#
=24
4g#
4a
2.a
4c#
=25
4a
4f#
4f#
4d
4d
4c#
=26
4a
4G
4c#
4E
4E
4d
=27
4a
4f
4f
4d
4d
4c#
=28
4c#
8d
8e
2.e
4d
=29
4d
8e
16f#
16g
4g
4f#
4f#
4e
=30
4e
4f#
4f#
4e
4e
4d
=31
4d
4E
4d
4G
4c#
4F#
=32
4c#
4d
1d
=33
*>B
2e
2.e
4e
=10
4e
4c#
4d#
8A
8B
4c
4E
=11
4f#
4A
4B
8f#
8g
4a
4D#
=12
4a
4f#
2.g
4g
=13
4g
4f#
4cc
4d
4e
4G
=14
4F#
4e
4d
4cc
2b
=15
4d
4e
4e
4f#
4f#
4g
=16
4g
4A
2.g
4b
=17
4b
4g
4g
4e
4e
4c#
=18
4c#
4A
4A
4G
4G
4a
=19
4a
4f#
4f#
4d
4d
4B
=20
4B
4G
4G
4F#
4F#
4g
=21
4g
4d
4d
4c#
4c#
4B
=22
4g
4c#
4c#
4B
4B
4A
=23
4A
4g
4g
4f#
4f#
4g#
=24
4g#
4a
2.a
4c#
=25
4a
4f#
4f#
4d
4d
4c#
=26
4a
4G
4c#
4E
4E
4d
=27
4a
4f
4f
4d
4d
4c#
=28
4c#
8d
8e
2.e
4d
=29
4d
8e
16f#
16g
4g
4f#
4f#
4e
=30
4e
4f#
4f#
4e
4e
4d
=31
4d
4E
4d
4G
4c#
4F#
=32
4c#
4d
1d
==
*-
